X: 1
T: Atlantic
M: 2/4
L: 1/8
R: polka
K: Dmaj
|f/d/f/a/ gc|ed A/d/d|fe A/c/e/f/|gf/g/ f/e/d|
f/d/f/a/ gc|ed A/d/d|fe g/e/c/e/|df dz:|
|:A2 AF/G/|Af/g/ f/e/d|g2 ge/c/|df/g/ f/e/d|
A2 AF/G/|Af/g/ f/e/d|g2 ge/c/|df d2:|
|cA e/f/e/c/|dA f>g|ag e/d/e/g/|fd A>d|
cA e/f/e/c/|dA f>g|aA Bc|d2 dA|
|f2f2|fg fe|dc/d/ ed|B3B|
e>f ed|c>d cB|B>c B>c|BA FD|
f2f2|fg fe|dc/d/ ed|B3B|
e>f ed|c>d cB|A>g fe|d2 d2|
